X: 59
T:Mwynen Cynwyd
M:6/8
L:1/8
Q:130
C:Trad
S:Blodau'r Grug Collection Vol. 2
A:Wales
Z:brian_martin12345@yahoo.com
K:G
d|BGG G2 G|GBd dcB|eAA A2 A|cde edc|BGG G2 G|GBd dcB|!
cBc Adc|1BAB G2:||2BAB G3||]
e2ge2g|e2g eBe|d2gd2g|!d2g dBd|eAA A2A|c2d edc|=fed edc|de=f edc:||

